src/apps/symbolic/goa-account-facebook-symbolic.svg

<svg width="16" height="16" version="1.1" viewBox="0 0 16 16" xmlns="http://www.w3.org/2000/svg">
 <path d="m8.0002 15v-4.5h-1.5v-2h1.5v-2c0-2 2-2 2-2h2v2h-1.5s-0.5 0-0.5 0.5v1.5h2l-0.25 2h-1.75v4.5z" fill="#363636"/>
 <path d="m3 1c-1.108 0-2 0.892-2 2v10c0 1.108 0.892 2 2 2h10c1.108 0 2-0.892 2-2v-10c0-1.108-0.892-2-2-2h-10zm0 1h10c0.554 0 1 0.446 1 1v10c0 0.554-0.446 1-1 1h-10c-0.554 0-1-0.446-1-1v-10c0-0.554 0.446-1 1-1z" fill="#363636"/>
</svg>

<svg xmlns="http://www.w3.org/2000/svg" width="16" height="16">
    <path fill="#050505" fill-opacity=".7" d="M8 15v-4.5H6.5v-2H8v-2c0-2 2-2 2-2h2v2h-1.5s-.5 0-.5.5v1.5h2l-.25 2H10V15z"/>
    <path fill="#050505" fill-opacity=".7" d="M3 1c-1.108 0-2 .892-2 2v10c0 1.108.892 2 2 2h10c1.108 0 2-.892 2-2V3c0-1.108-.892-2-2-2H3zm0 1h10c.554 0 1 .446 1 1v10c0 .554-.446 1-1 1H3c-.554 0-1-.446-1-1V3c0-.554.446-1 1-1z"/>
</svg>
